!! 00000] TT[WS
!!!OTL: Da shujiu
!!!ARE: Asia, China, Shanxi Qinyuan
!! Ethnic Group: Han
!! WII, 186 (2)
!!!SCT: J0683
!!!YEM: Copyright 1995, estate of Helmut Schaffrath.
**kern
*ICvox
*Ivox
!! Mixed meters:  2/4; 3/4
*MZ
*k[f#c#]
*D:
{4a
8dd
8b
=1
4a
8f#
8e
=2
8a
8b
8a
8d
=3
4e
4e}
=4
{8b
8dd
8b
8a
=5
4g
4a
=6
8b
8ee
8dd
8b
=7
4.a
8g
=8
2a}
=9
{8a
8b
8a
8d
=10
4e
4e
=11
8a
8b
8a
8d
=12
4e
4e}
=13
{8a
8b
8a
8a
=14
8d
16B
16d
8e
8g
=15
8b
4a
8g
=16
8d
8e
4d}
=17
{4.dd
8ee
=18
8b
8dd
8b
8a
=19
8b
8a
8e
8g
=20
4a
8a
8dd
=21
8b
8a
8e
8g
=22
4a
4a}
=23
{8a
8b
8a
8a
=24
8d
16B
16d
8e
8g
=25
8b
4a
8g
=26
8d
8e
4d}
=27
{8a
8b
8a
8d
=28
4e
4e
=29
8a
8b
8a
8d
=30
4e
4e}
=31
{8a
8b
8a
8a
=32
8d
16B
16d
4e
=33
*M3/4
8a
8g
8a
8b
8a
8a
=34
*M2/4
8d
16B
16d
8e
8g
=35
8b
4a
8g
=36
8d
8e
4d}
==
!!!AGN: Xiaodiao. Sichun
!!!ONB: ESAC (Essen Associative Code) Database: CHINA
!!!AMT: irregular
!!!AIN: vox
!!!EED: Helmut Schaffrath
!!!EEV: 1.0
*-
